X:3133
T:Johnny William's Jig
O:england
R:Jig
S:Jim Mulqueeny, Clare (fiddle).
H:'c's and 'f's very mobile
H:A version of 'The Yellow Wattle'
D:A mysterious tape
M:6/8
L:1/8
K:G
|:dcA ABG|ABG ABc|dcA ABc|dcA GED|
dcA ABG|ABG AGE|D2A cde|dcA GED:|
|:DED c2d|edd dcd|D2A cde|dcA GED|
DED c2d|edd dcd|efe cde|dcA GED:|


